src/components/Icon/utils/svgsOptimized/heading-3.svg

<svg width="24" height="24" viewBox="0 0 24 24"  xmlns="http://www.w3.org/2000/svg">
<path d="M11.82 6H12.62C12.81 6 12.97 6.16 12.97 6.35V17.65C12.97 17.84 12.81 18 12.62 18H11.82C11.63 18 11.47 17.84 11.47 17.65V12.6H7.26999V17.65C7.26999 17.84 7.10999 18 6.91999 18H6.11999C5.92999 18 5.76999 17.84 5.76999 17.65V6.35C5.76999 6.16 5.92999 6 6.11999 6H6.91999C7.10999 6 7.26999 6.16 7.26999 6.35V11.4H11.47V6.35C11.47 6.16 11.63 6 11.82 6Z" />
<path d="M19.3 11.64C19.3 12.58 18.98 13.16 18.56 13.52H18.57C19.07 13.9 19.45 14.54 19.45 15.51C19.45 16.89 18.37 17.96 16.99 17.96C16.01 17.96 15.19 17.42 14.79 16.61C14.72 16.47 14.79 16.3 14.94 16.24L15.69 15.94C15.81 15.88 15.96 15.94 16.03 16.06C16.21 16.39 16.55 16.61 16.98 16.61C17.61 16.61 18.09 16.14 18.09 15.51C18.09 14.36 17.26 14.18 16.96 14.13C16.88 14.11 16.76 14.1 16.65 14.1C16.5 14.09 16.38 13.97 16.38 13.82V13.3C16.38 13.15 16.49 13.03 16.63 13.02C16.75 13.01 16.88 12.99 16.99 12.96C17.0018 12.9566 17.0144 12.9531 17.0276 12.9495C17.3263 12.8664 17.95 12.693 17.95 11.63C17.95 11.01 17.53 10.53 16.99 10.53C16.62 10.53 16.32 10.77 16.16 11.11C16.09 11.25 15.94 11.32 15.8 11.26L15.05 10.96C14.91 10.91 14.84 10.74 14.9 10.6C15.26 9.76 16.05 9.19 16.99 9.19C18.28 9.19 19.3 10.27 19.3 11.64Z" />
</svg>

<?xml version="1.0" encoding="utf-8"?><svg width="24" height="24" xmlns="http://www.w3.org/2000/svg" viewBox="0 0 24 24"><path d="M11.82 6h.8c.19 0 .35.16.35.35v11.3c0 .19-.16.35-.35.35h-.8c-.19 0-.35-.16-.35-.35V12.6h-4.2v5.05c0 .19-.16.35-.35.35h-.8c-.19 0-.35-.16-.35-.35V6.35c0-.19.16-.35.35-.35h.8c.19 0 .35.16.35.35v5.05h4.2V6.35c0-.19.16-.35.35-.35Zm7.48 5.64c0 .94-.32 1.52-.74 1.88h.01c.5.38.88 1.02.88 1.99 0 1.38-1.08 2.45-2.46 2.45-.98 0-1.8-.54-2.2-1.35a.27.27 0 0 1 .15-.37l.75-.3c.12-.06.27 0 .34.12.18.33.52.55.95.55.63 0 1.11-.47 1.11-1.1 0-1.15-.83-1.33-1.13-1.38-.08-.02-.2-.03-.31-.03a.284.284 0 0 1-.27-.28v-.52c0-.15.11-.27.25-.28a2.081 2.081 0 0 0 .398-.07c.298-.084.922-.257.922-1.32 0-.62-.42-1.1-.96-1.1-.37 0-.67.24-.83.58-.07.14-.22.21-.36.15l-.75-.3a.272.272 0 0 1-.15-.36c.36-.84 1.15-1.41 2.09-1.41 1.29 0 2.31 1.08 2.31 2.45Z"/></svg>
